src/assets/icon/globe_asia.svg

<svg width="24" height="24" viewBox="0 0 24 24" fill="none" xmlns="http://www.w3.org/2000/svg">
<mask id="mask0_190_3362" style="mask-type:alpha" maskUnits="userSpaceOnUse" x="0" y="0" width="24" height="24">
<rect width="24" height="24" fill="#D9D9D9"/>
</mask>
<g mask="url(#mask0_190_3362)">
<path d="M11.8 20.0058C11.25 20.0058 10.7792 19.809 10.3875 19.4155C9.99588 19.0218 9.80005 18.55 9.80005 18C9.80005 17.45 9.99588 16.9792 10.3875 16.5875C10.7792 16.1958 11.25 16 11.8 16L12.4 15.425C12.5334 15.2917 12.6875 15.1875 12.8625 15.1125C13.0375 15.0375 13.2167 15 13.4 15C13.7834 15 14.1125 15.1417 14.3875 15.425C14.6625 15.7083 14.8 16.0417 14.8 16.425V16.85C14.8 17.1833 14.9084 17.4583 15.125 17.675C15.3417 17.8917 15.6167 18 15.95 18C16.2 18 16.425 17.925 16.625 17.775C16.825 17.625 16.9667 17.4333 17.05 17.2L17.35 16.375C17.5 15.975 17.7385 15.6458 18.0655 15.3875C18.3924 15.1292 18.7725 15 19.2058 15C19.3891 14.5333 19.535 14.05 19.6433 13.55C19.7516 13.05 19.8058 12.5333 19.8058 12C19.8058 10.5167 19.4382 9.16567 18.703 7.947C17.9677 6.7285 17 5.76925 15.8 5.06925V6C15.8 6.55 15.6042 7.02083 15.2125 7.4125C14.8209 7.80417 14.35 8 13.8 8H12.8V10C12.8 10.2833 12.7042 10.5208 12.5125 10.7125C12.3209 10.9042 12.0834 11 11.8 11H10.8V12.7C10.8 13.0667 10.675 13.375 10.425 13.625C10.175 13.875 9.86672 14 9.50005 14C9.26672 14 9.05422 13.95 8.86255 13.85C8.67088 13.75 8.51672 13.6083 8.40005 13.425L6.80005 11H5.80005V12C5.80005 12.5167 5.62805 12.9583 5.28405 13.325C4.94005 13.6917 4.5268 13.9083 4.0443 13.975C4.47763 15.7083 5.41188 17.1468 6.84705 18.2905C8.28238 19.434 9.93338 20.0058 11.8 20.0058ZM13.8 14C13.5167 14 13.2792 13.9042 13.0875 13.7125C12.8959 13.5208 12.8 13.2833 12.8 13C12.8 12.7167 12.8959 12.4792 13.0875 12.2875C13.2792 12.0958 13.5167 12 13.8 12H14.8C15.0834 12 15.3209 12.0958 15.5125 12.2875C15.7042 12.4792 15.8 12.7167 15.8 13C15.8 13.2833 15.7042 13.5208 15.5125 13.7125C15.3209 13.9042 15.0834 14 14.8 14H13.8ZM16.125 11C15.7917 11 15.5292 10.8708 15.3375 10.6125C15.1459 10.3542 15.1 10.0667 15.2 9.75L15.575 8.65C15.6417 8.45 15.7584 8.29167 15.925 8.175C16.0917 8.05833 16.275 8 16.475 8C16.8084 8 17.0709 8.12917 17.2625 8.3875C17.4542 8.64583 17.5 8.93333 17.4 9.25L17.025 10.35C16.9584 10.55 16.8417 10.7083 16.675 10.825C16.5084 10.9417 16.325 11 16.125 11ZM11.8018 21.5C10.4878 21.5 9.25272 21.2507 8.09655 20.752C6.94038 20.2533 5.93472 19.5766 5.07955 18.7218C4.22438 17.8669 3.5473 16.8617 3.0483 15.706C2.54947 14.5503 2.30005 13.3156 2.30005 12.0017C2.30005 10.6877 2.54938 9.45267 3.04805 8.2965C3.54672 7.14033 4.22347 6.13467 5.0783 5.2795C5.93313 4.42433 6.93838 3.74725 8.09405 3.24825C9.24972 2.74942 10.4845 2.5 11.7983 2.5C13.1123 2.5 14.3474 2.74933 15.5035 3.248C16.6597 3.74667 17.6654 4.42342 18.5205 5.27825C19.3757 6.13308 20.0528 7.13833 20.5518 8.294C21.0506 9.44967 21.3 10.6844 21.3 11.9983C21.3 13.3123 21.0507 14.5473 20.552 15.7035C20.0534 16.8597 19.3766 17.8653 18.5218 18.7205C17.667 19.5757 16.6617 20.2528 15.506 20.7518C14.3504 21.2506 13.1156 21.5 11.8018 21.5Z" fill="black"/>
</g>
</svg>

<svg xmlns="http://www.w3.org/2000/svg" width="24" height="24" fill="none" xmlns:v="https://vecta.io/nano"><mask id="A" maskUnits="userSpaceOnUse" x="0" y="0" width="24" height="24" mask-type="alpha"><path fill="#d9d9d9" d="M0 0h24v24H0z"/></mask><g mask="url(#A)"><path d="M11.8 20.006a1.92 1.92 0 0 1-1.413-.59C9.996 19.022 9.8 18.55 9.8 18s.196-1.021.587-1.413S11.25 16 11.8 16l.6-.575c.133-.133.287-.238.463-.312A1.35 1.35 0 0 1 13.4 15c.383 0 .713.142.987.425s.413.617.413 1v.425c0 .333.108.608.325.825s.492.325.825.325c.25 0 .475-.075.675-.225s.342-.342.425-.575l.3-.825a2.23 2.23 0 0 1 .715-.988c.327-.258.707-.387 1.14-.387.183-.467.329-.95.438-1.45a7.3 7.3 0 0 0 .163-1.55c0-1.483-.368-2.834-1.103-4.053S17 5.769 15.8 5.069V6c0 .55-.196 1.021-.588 1.412S14.35 8 13.8 8h-1v2c0 .283-.096.521-.288.713S12.083 11 11.8 11h-1v1.7c0 .367-.125.675-.375.925S9.867 14 9.5 14c-.233 0-.446-.05-.637-.15s-.346-.242-.463-.425L6.8 11h-1v1c0 .517-.172.958-.516 1.325a2.04 2.04 0 0 1-1.24.65c.433 1.733 1.368 3.172 2.803 4.316s3.086 1.715 4.953 1.715zm2-6.006c-.283 0-.521-.096-.713-.287S12.8 13.283 12.8 13s.096-.521.287-.713.429-.287.713-.287h1c.283 0 .521.096.712.287s.288.429.288.713-.096.521-.288.713-.429.287-.712.287h-1zm2.325-3c-.333 0-.596-.129-.787-.387a.91.91 0 0 1-.138-.863l.375-1.1c.067-.2.183-.358.35-.475a.94.94 0 0 1 .55-.175c.333 0 .596.129.787.387a.91.91 0 0 1 .137.863l-.375 1.1c-.067.2-.183.358-.35.475a.94.94 0 0 1-.55.175zm-4.323 10.5c-1.314 0-2.549-.249-3.705-.748s-2.162-1.175-3.017-2.03-1.532-1.86-2.031-3.016-.748-2.39-.748-3.704.249-2.549.748-3.705 1.175-2.162 2.03-3.017 1.86-1.532 3.016-2.031 2.39-.748 3.704-.748 2.549.249 3.705.748 2.162 1.175 3.017 2.03 1.532 1.86 2.031 3.016.748 2.39.748 3.704-.249 2.549-.748 3.705-1.175 2.162-2.03 3.017-1.86 1.532-3.016 2.031-2.39.748-3.704.748z" fill="#000"/></g></svg>
